!!!!SEGMENT: pl-wnifc--6670-n--001-014_gall-jan-karol--piesni-polskie-na-chor-meski-z-i-2-bracia-patrzcie-jeno.krn
!!!cenid: 19xx:182
!!!COM: Gall, Jan Karol
!!!COM-rismID: pe50042628
!!!CDT: 1856-1912
!!!CNT: Polish
!!!GTL: Pieśni polskie na chór męski (z. I)
!!!OTL: 2. Bracia patrzcie jeno
!!!OMV: 014
!!!PDT:
!!!AGN:
!!!YEC: Copyright 2022 Narodowy Instytut Fryderyka Chopina (https://polishscores.org)
!!!YEM: License CC-BY-4.0 (https://creativecommons.org/licenses/by/4.0)
!!!SMS-siglum: PL-Wnifc
!!!SMS-shelfmark: 6670/n
!!!SMS-variant:
!!!SMS-altvar:
!!!SMS-shelfwork: 001-014 G
!!!NIFC-rismSourceID: 1001152877
!!!NIFC-rismChildID: 1001152901
!!!NIFC-islandoraID: nifc:213182
!!!URL-pdf-islandora: https://repozytorium.nifc.pl/islandora/object/nifc:213182/datastream/PDF/view
!!!URL-scan: https://polish.musicsources.pl/pl/lokalizacje/galeria/druki-muzyczne/16895/8 @EN{Scan on Polish Music Sources Website} @PL{Skany w portalu Dziedzictwo Muzyki Polskiej w otwartym dostępie}
!!!IIIF:
!!!ONB-nifc:
!!!AIN: 1 bass 1 tenor
!!!key: C
**kern	**dynam	**kern	**text	**dynam
*part2	*part2	*part1	*part1	*part1
*staff2	*	*staff1	*staff1	*
*ICvox	*	*ICvox	*	*
*Ibass	*	*Itenor	*	*
*I"Basy.	*	*I"Tenory.	*	*
*I'	*	*I'	*	*
*clefF4	*	*clefG2	*	*
*	*	*ITrd8c12	*	*
*k[]	*	*k[]	*	*
*C:	*	*C:	*	*
*M3/4	*	*M3/4	*	*
*>[A,A]	*>[A,A]	*>[A,A]	*>[A,A]	*>[A,A]
=1	=1	=1	=1	=1
*>A	*>A	*>A	*>A	*>A
*	*	*	*^	*
*^	*	*^	*	*	*
!!LO:TX:a:B:t=Andantino.
!	!	!LO:DY:b:rj	!LO:TX:t=P:problem:partia zapisana bez przenośnika oktawowego	!	!	!	!LO:DY:a:rj
8G/	8G\	mf	8G/	8G\	Bra-	Patrz-	mf
8F#X/	8F#\	.	8A/	8G\	-cia	-cie	.
4Fn/	4F\	.	4B/	4G\	patrz-	jak	.
4F/	4F\	.	4G/	4G\	-cie	tam	.
=2	=2	=2	=2	=2	=2	=2	=2
2E/	2E\	.	2c/	2G\	je-	gwia-	.
  4G/	4C\	.	4e/	4c\	-no	-zda	.
=3	=3	=3	=3	=3	=3	=3	=3
8F#X/	8C\	.	8d/	8A\	jak	świat-	.
8D/	8C\	.	8c/	8F#X\	nie-	-łem	.
4D/	4C\	.	4B/	4F#\	-bo	swo-	.
4D/	4C\	.	8c/L	4F#\	go-	-jem	.
.	.	.	8A/J	.	.	.	.
=4	=4	=4	=4	=4	=4	=4	=4
4Fn/	4C\	.	4d/	4G\	-re-	mi-	.
2F/	2C\	.	2G/	2G\	-je,	-ga	.
!!LO:LB:g=original
=5	=5	=5	=5	=5	=5	=5	=5
!	!	!LO:DY:b:rj	!	!	!	!	!LO:DY:a:rj
8F/	8C\	f	8G/	8G\	znać	Pew-	f
8F/	8C\	.	8A/	8G\	że	-nie	.
4F/	4C\	.	4B/	4G\	coś	do	.
4F/	4C\	.	4G/	4G\	dzi-	u-	.
=6	=6	=6	=6	=6	=6	=6	=6
2E/	2C\	.	2c/	2G\	-wne-	-czcze-	.
4G/	4C\	.	4e/	4c\	-go	-nia	.
=7	=7	=7	=7	=7	=7	=7	=7
8F#X/	8C\	.	8d/	8A\	w Be-	Pa-	.
8D/	8C\	.	8c/	8F#X\	-tle-	-na	.
4D/	4C\	.	4B/	4F#\	-em	swe-	.
4D/	4C\	.	8c/L	4F#\	się	-go	.
.	.	.	8A/J	.	.	.	.
=8	=8	=8	=8	=8	=8	=8	=8
4Fn/	4C\	.	4d/	4G\	dzie-	ści-	.
2F/	2C\	.	2G/	2G\	-je.	-ga	.
=9	=9	=9	=9	=9	=9	=9	=9
!LO:TX:b:i:t=poco accel.	!	!	!LO:TX:a:i:t=poco accel.	!	!	!	!
8E/	8C\	.	8G/	8G\	Rzuć-	Kro-	.
8G/	8C\	.	8e/	8c\	-my	-kiem	.
4G/	4C\	.	4e/	4c\	bu-	śmia-	.
4E/	4C\	.	4c/	4G\	-dy,	-łym	.
!!LO:LB:g=original
=10	=10	=10	=10	=10	=10	=10	=10
8F/	8C\	.	8B/	8G\	war-	i	.
8F/	8C\	.	8c/	8G\	-ty,	we-	.
4F/	4C\	.	4d/	4G\	sta-	-so-	.
!	!	!	!	!	!	!	!LO:HP:a
4F/	4C\	<	4G/	4G\	-da	-lym	<
=11	=11	=11	=11	=11	=11	=11	=11
8E/	8C\	[	8G/	8G\	nie-	spiesz-	[
8G/	8C\	.	8e/	8c\	-chaj	-my	.
4G/	4C\	.	4e/	4c\	nie-	i	.
4E/	4C\	.	4c/	4G\	-mi	u-	.
=12	=12	=12	=12	=12	=12	=12	=12
8F/	8C\	.	8B/	8G\	Pan	-derz-	.
8F/	8C\	.	8c/	8G\	Bóg	-my	.
4F/	4C\	.	4d/	4G\	wła-	czo-	.
4F/	4C\	.	4G/	4G\	-da	-łem	.
=13	=13	=13	=13	=13	=13	=13	=13
!LO:TX:b:i:t=a tempo	!	!	!LO:TX:a:i:t=a tempo	!	!	!	!
8E/	8C\	.	8G/	8G\	idż-	przed	.
8F/	8D\	.	8G/	8G\	-my	Pa-	.
!	!	!	!	!	!	!	!LO:HP:a
!	!	!	!	!	!	!	!LO:DY:a
4E/	4C\	f <	4c/	4G\	do	-nem	f <
4E/	4AA\	[	4e/	4c\	Be-	w Be-	[
=14	=14	=14	=14	=14	=14	=14	=14
4F/	8FF\L	.	8d/L	8A\L	-tle-	-tle-	.
.	8GG\J	.	8B/J	8G\J	.	.	.
2E/	2C\	.	2c/	2G\	-em!	-em!	.
*v	*v	*	*	*	*	*	*
*	*	*v	*v	*	*	*
*	*	*	*v	*v	*
=:|!	=:|!	=:|!	=:|!	=:|!
*-	*-	*-	*-	*-
!!!system-decoration: [(s1,s2)]
!!!RDF**kern: > = above
!!!RDF**kern: < = below
!!!RDF**kern: N = linked
!!!ENC: Andrzej Gręziak
!!!EED: Katarzyna Serwa
!!!END: 2024-05-02
!!!EEV: 2025-03-07
